X:197
%%titlespace -10
%%musicspace -10
T:The White Cockade
M:2/4
L:1/8
K:G
G/A/ | "G"BB BA/G/ | BB Bg | dB BA/G/ | "D7"BA AG/A/ | "G"BB c/B/A/G/ | Bd g3/a/ | 
"G"b/a/g/f/ "D7"a/g/f/e/ | "G"dB B :|]|: Bc | "G"dB gB | dd d3/e/ | dB gf/g/ | 
"D7"aA AG/A/ | "G"BB c/B/A/G/ | Bd g3/a/ | "G"b/a/g/f/ "D7"a/g/f/e/ | "G"dd d :|

